X: 20303
M: 3/8
L: 1/8
K: C
|:\
g2e g2e | ded c2z :|\
|: G |\
(Gc).c | (ce).g | gf/e/f | d2G |\
(GB).B | (Bd).f | egB | c2z :|


